X: 146
%
U:~=!turn!
T: The Drummer
C:
O:Scotland
B:Keith Norman MacDonald : "The Skye collection of the best reels & strathspeys extant" : 1887
Z:Ralph Palmer
R:Reel
M:C|
L:1/8
K:A minor
B | AB{AB}cA TE2 (E^F) | GABc dB{/^F}GB | cABG E2 (Ef) | edcB {cB}A2 A :|
B | {AB}c2 (ce) {/^c}d2 de | c2 (ce) {/^c}dB {/^F}GB | {AB}c2 (ce) {/^c}d2 (df) | edcB {cB}A2 (AB) |
{AB}c2 (ce) {/^c}d2 de | {AB}c2 (ce) {/^c}dB {/^F}GB | ccce dddf | ed{AB}cB {cB}A2 A |]


